X:1
T:Ove si volgeran gliocchi
T:Tiburtio Massaino
T:Ove si volgeran gliocchi
C:Tiburtio Massaino
%%score [ 1 2 3 4 ]
L:1/8
Q:1/4=100
M:4/2
K:C
V:1 alto1 nm="Soprano" snm="S"
V:2 alto nm="Alto" snm="A"
V:3 tenor nm="Tenor" snm="T"
V:4 bass nm="Bass" snm="B"
V:1
 z16 |[K:Eb][K:treble] c4 c2 c2 B6 A2 | G8 z4 B4- | B2 B2 G4 c4 =B4 | z16 | z16 | z16 | %7
w: |O- ve si vol- ge-|ran glioc-|* chi miei las- si,||||
 c4 c2 c2 B6 A2 | G4 A6 G2 G4 | c8 =B4 _B4 | c6 B2 c2 d2 e4 | c4 z4 z8 | z8 z4 e2 d2 | %13
w: O- ve si vol- ge-|ran glioc- chi miei|las- si, Per|ri- tro- var il co-|re,|Se Ma-|
 c4 e2 d2 c4 z4 | z2 c4 B2 A4 G2 G2 | F2 E3 E D2 CDEF GA B2 | E3 F G4 z2 e2 e2 d2 | %17
w: don- na lo tien,|Se Ma- don- na lo|tien sempr' in er- ro- * * * * * *|re, _ _ Per qual ve-|
 c4 B2 G4 F2 G2 B2 | A4 G4 B4 G4 | A2 G4 F2 A4 G4 | z16 | z8 z4 c4 | B8 A8 | G12 G4 | %24
w: sti- ge il cer- che- re- te o|pas- si, il cer-|che- re- te o pas- si,||Et|voi miei|stan- chi|
 F4 G4 z4 z2 c2- | c2 B2 c4 z4 z2 c2- | c2 B2 c4 z4 z2 c2- | c2 B2 A4 G4 c4 | %28
w: pie- di, S'io|_ non l'ho, S'io|_ non l'ho no'l|_ vols' el- la al-|
 c2 c2 =B4 c2 d2 e2 c2 | c4 c4 z2 c2 B2 G2 | A4 G2 =A2 B2 B2 c4 | B2 e3 d d3 c c4 B2 | %32
w: trui no'l die- di, al- trui no'l|die- di, Ma co- me al-|ber- ga et senz' ap- pog-|gio stas- * * * * *|
 c2 c2 B2 G2 A4 G2 c2 | c2 d2 e4 d4 c4- | c2 B2 B2 AG A8 | G16 | z16 | z16 | z2 G4 A4 F2 B2 B2 | %39
w: si, Ma co- me al- ber- ga et|senz' ap- pog- gio stas-||si,|||Tu che lo gui- di A-|
 c4 z4 z4 z2 e2 | c2 c2 c4 c4 z4 | c4 G2 B4 A3 G G2- | G2 F2 G4 z4 d4 | e6 d2 c4 c4 | %44
w: mor so|ben che'l ve- di,|Non e in me non e in le-|* * i, Ma|dol- ce ni- do|
 =B4 B2 e2 d2 c2 B4 | c4 d4 e6 d2 | c4 c2 c4 B4 A2 | G2 F2 =E4 F4 z2 c2 | e4 c2 c4 B2 c4 | %49
w: fas- si, Tra suoi be glioc-|chi Tra suoi be|glioc- chi e i dol- ci|pen- sier mie- i, e i|dol- ci pen- sier mie-|
 c4 z4 z2 g4 f2- | f2 e2 d2 c2 =B2 c3 B B2 | c16 |] %52
w: i, e i dol-|* ci pen- sier mie- * * *|i.|
V:2
 z16 |[K:Eb][K:treble] z4 E6 E2 D4 | E3 F G8 F4 | E2 D2 E8 D4 | c4 c2 c2 B6 A2 | G8 z4 B4- | %6
w: |O- ve si|vol- ge- ran glioc-|chi miei las- si,|O- ve si vol- ge-|ran glioc-|
 B2 B2 G4 c4 =B4 | z16 | z8 z4 D4 | E4 C4 D2 D2 G4- | G4 G4 z8 | z2 c4 B2 A4 G2 E2 | %12
w: * chi miei las- si,||Per|ri- tro- var il co-|* re,|Se Ma- don- na lo|
 A2 G3 G G2 F4 G4 | z2 c4 B2 A4 G2 G2 | F2 E3 E D2 C4 G,4 | z8 z2 E2 E2 D2 | C4 B,4 z8 | %17
w: tien sempr' in er- ro- re,|Se Ma- don- na lo|tien sempr' in er- ro- re,|Per qual ve-|sti- ge,|
 z2 E2 E2 D2 C4 B,4 | C4 E4 D4 E4 | C4 B,4 z8 | z16 | z8 z4 A4- | A4 G8 F4- | F4 E8 D4 | %24
w: Per qual ve- sti- ge il|cer- che- re- te o|pas- si,||Et|_ voi miei|_ stan- chi|
 C3 DEF G4 F2 F2 EF | G4 C4 E4 A4 | G4 z2 c4 B2 c2 A2- | A2 G2 F4 E4 z2 G2 | A2 A2 G4 G2 B2 B2 A2 | %29
w: pie- * * * * * * * *|* di, S'io non|l'ho, S'io non l'ho no'l|_ vols' el- la al-|trui no'l die- di, al- trui no'l|
 G4 F4 z8 | z16 | z8 z2 G2 F2 D2 | E4 D2 E2 E2 F2 G2 G2 | A4 G4 z2 G2 E3 D | C2 D2 E6 DC D4 | %35
w: die- di,||Ma co- me al-|ber- ga et senz' ap- pog- gio|stas- si, et senz' ap-|pog- gio stas- * * *|
 E8 z8 | z16 | z16 | z4 E4 F4 G4 | A6 B2 c2 c4 B2- | B2 A2 G4 F8 | z4 z2 G2 D2 F4 E2- | %42
w: si,|||Tu che lo|gui- di A- mor so ben|_ che'l ve- di,|Non e in me non|
 E2 C2 D4 C4 z2 G2 | G6 G2 G4 F4 | G4 G2 E2 F2 F2 G4 | C4 G4 G6 G2 | G4 F4 G4 G2 E2 | %47
w: _ e in le- i, Ma|dol- ce ni- do|fas- si, Tra suoi be glioc-|chi Ma dol- ce|ni- do fas- si, Tra|
 D2 C2 G4 C4 z2 c2- | c2 B4 A2 G2 F2 =E4 | F4 z2 G2 G2 C2 D4 | G4 G3 G G2 F2 G4 | G16 |] %52
w: suoi be glioc- chi e i|_ dol- ci pen- sier mie-|i, Tra suoi be glioc-|chi e i dol- ci pen- sier mie-|i.|
V:3
 z16 |[K:Eb][K:treble-8] z16 | z16 | z16 | z4 e6 e2 d4 | e3 f g8 f4 | e2 d2 e8 d4 | %7
w: ||||O- ve si|vol- ge- ran glioc-|chi miei las- si,|
 f6 f2 g2 g4 f2 | e4 e6 e2 d2 g2- | g2 fe f4 g4 d4 | e6 d2 c4 B4 | e4 d4 z4 z2 g2 | %12
w: O- ve si vol- ge-|ran glioc- chi miei las-|* * * * si, Per|ri- tro- var il|co- re, Se|
 f2 e4 d2 z2 c4 B2 | A4 G2 G2 A2 e3 e d2 | cdef g4 e2 e2 e2 d2 | c4 B4 c6 B2 | A4 G4 A4 G4 | %17
w: Ma- don- na, Se Ma-|don- na lo tien sempr' in er-|ro- * * * * re, Per qual ve-|sti- ge il cer- che-|re- te o pas- si,|
 z8 z4 d4 | f4 B8 c4- | c2 e2 d4 c4 e4- | e4 d8 c4- | c4 B6 A2 c3 d | e8 c8 | c8 z8 | z2 c4 B2 c8 | %25
w: il|cer- che- re-|* te o pas- si, Et|_ voi miei|_ stan- chi pie- *||di,|S'io non l'ho|
 z4 z2 A4 G2 F4 | E2 e2 ABcd e4 ABcd | e2 B2 z4 z4 e4 | e2 f2 d4 =e2 g2 g2 f2 | =e4 f4 z4 g4 | %30
w: no'l vols' el-|la no'l vols' _ _ _ _ el- * * *|* la al-|trui no'l die- di, al- trui no'l|die- di, Ma|
 f2 d2 e4 d2 e2 e2 f2 | g2 g2 a4 g4 z4 | z2 g2 gfed c2 d2 =e4 | f4 c2 e2 B2 B2 c3 d | %34
w: co- me al- ber- ga et senz' ap-|pog- gio stas- si,|et senz' _ _ _ _ ap- pog-|gio et senz' ap- pog- gio stas- *|
 e3 f g4 c4 f4 | B8 z2 B4 c2- | c2 d2 e8 f2 g2- | g2 a4 g3 f f4 =e2 | f2 B4 c4 d2 e4- | %39
w: * * * si, stas-|si, Tu che|_ lo gui- di A- mor|_ so ben che'l ve- *|di, Tu che lo gui-|
 e4 f2 g4 a4 g2- | gf f4 =e2 f4 z2 f2 | c2 e4 B4 c2 d2 e2 | c4 =B4 c4 z2 G2 | c6 =B2 c4 A4 | %44
w: * di A- mor so ben|_ che'l ve- * di, Non|e in me, Non e in me non|e in le- i, Ma|dol- ce ni- do|
 G4 G2 c2 B2 A2 G4 | F4 B4 c6 d2 | e4 c4 d6 c2 | z2 c4 B4 A2 G2 F2 | E4 F4 z4 z2 g2- | %49
w: fas- si, Tra suoi be glioc-|chi Tra suoi _|_ be glioc- chi|e i dol- ci pen- sier|mie- i, e i|
 g2 f4 e2 d2 c2 =B4 | c2 c2 B2 e2 d2 c2 d4 | =e16 |] %52
w: _ dol- ci pen- sier mie-|i, e i dol- ci pen- sier mie-|i.|
V:4
 z16 |[K:Eb] z16 | C4 C2 C2 B,6 A,2 | G,4 C6 C2 G,4 | A,8 G,8 | C4 C2 C2 B,6 A,2 | G,4 C6 C2 G,4 | %7
w: ||O- ve si vol- ge-|ran glioc- chi miei|las- si,|O- ve si vol- ge-|ran glioc- chi miei|
 A,8 G,8 | C8 C4 B,4 | A,8 G,8 | z4 G,4 A,6 G,2 | A,4 B,4 C4 C4 | z2 C4 B,2 A,4 G,4 | %13
w: las- si,|glioc- chi miei|las- si,|Per ri- tro-|var il co- re,|Se Ma- don- na,|
 z8 z2 C4 B,2 | A,4 G,4 z2 C2 B,4 | A,4 G,2 G,2 A,4 G,4 | z2 E2 E2 D2 C4 B,4 | C4 G,4 A,4 G,4 | %18
w: Se Ma-|don- na lo tien|sempr' in er- ro- re,|Per qual ve- sti- ge il|cer- che- re- te o|
 F,4 E,4 z8 | z8 z4 C4 | B,8 A,8 | G,8 F,4 A,4 | E,8 z8 | z4 C4 C4 B,4 | A,4 G,4 A,8 | %25
w: pas- si,|Et|voi miei|stan- chi pie-|di,|Et voi miei|stan- chi pie-|
 G,4 z2 C4 B,2 C4 | z4 z2 A,4 G,2 F,4 | E,4 z4 z4 C4 | A,2 F,2 G,4 C,2 G,2 E,2 F,2 | C,4 F,4 z8 | %30
w: di, S'io non l'ho|no'l vols' el-|la al-|trui no'l die- di, al- trui no'l|die- di,|
 z4 C4 B,2 G,2 A,4 | G,2 C2 C2 D2 E4 D4 | C4 G,2 C2 A,2 F,2 C4 | F,4 z2 E,2 G,2 G,2 A,4- | %34
w: Ma co- me al- ber-|ga et senz' ap- pog- gio|stas- si, Ma co- me al- ber-|ga et senz' ap- pog-|
 A,4 G,4 F,8 | E,8 z4 E,4 | F,4 G,4 A,6 B,2 | C2 C4 B,4 A,2 G,4 | F,2 E,4 A,4 B,2 E,4 | %39
w: * gio stas-|si, Tu|che lo gui- di A-|mor so ben che'l ve-|di, Tu che lo gui-|
 A,2 A,2 F,2 E,4 F,4 G,2 | A,2 F,2 C,2 C,2 F,4 F,4 | z2 C4 G,2 B,2 F,4 G,2 | A,4 G,4 z8 | z16 | %44
w: di, Tu che lo gui- di A-|mor so ben che'l ve- di,|Non e in me non e in|le- i,||
 z16 | z4 G,4 C6 =B,2 | C4 A,4 G,4 G,2 C2 | B,2 A,2 G,4 F,4 z2 A,2- | A,2 G,4 F,2 C2 _D2 C4 | %49
w: |Ma dol- ce|ni- do fas- si, Tra|suoi be glioc- chi e i|_ dol- ci pen- sier mie-|
 F,4 z2 C,2 B,,2 E,2 D,4 | C,2 C,2 G,2 C,2 G,2 A,2 G,4 | C,16 |] %52
w: i, Tra suoi be glioc-|chi e i dol- ci pen- sier mie-|i.|

